!!!COM: Palestrina, Giovanni Perluigi da
!!!OPR: In minoribus duplicibus
!!!OTL: Benedictus
**kern	**kern	**kern
*Itenor	*Icalto	*Icant
!Tenor	!Altus	!Cantus
*clefGv2	*clefG2	*clefG2
*k[]	*k[]	*k[]
*?:X	*?:X	*?:X
*M4/2	*M4/2	*M4/2
=1	=1	=1
0r	1c	0r
.	1e	.
=2	=2	=2
0r	1f	1cc
.	2g	1ee
.	[2a	.
=3	=3	=3
0r	2a]	1ff
.	4g	.
.	4f	.
.	2e	1gg
.	2c	.
=4	=4	=4
0r	4d	1ff
.	4e	.
.	4f	.
.	4g	.
.	4a	2ee
.	4b-	.
.	[2cc	4dd
.	.	4cc
=5	=5	=5
1r	4cc]	1dd
.	4b-	.
.	4b-	.
.	8a	.
.	8g	.
1c	2a	[1cc
.	2g	.
=6	=6	=6
1e	2c	0cc]
.	2g	.
1f	2a	.
.	[2f	.
=7	=7	=7
1g	2f]	1r
.	2e	.
1f	1a	1cc
=8	=8	=8
2e	2g	1ee
4d	1a	.
4c	.	.
1d	.	1ff
.	4g	.
.	4f	.
=9	=9	=9
1c	2e	1gg
.	2g	.
2r	2a	1ff
2d	2b-	.
=10	=10	=10
2e	2g	2ee
2f	2a	4dd
.	.	4cc
2d	1b-	1dd
2B-	.	.
=11	=11	=11
1f	1a	0cc
2.c	2r	.
.	2g	.
8B-	.	.
8A	.	.
=12	=12	=12
1G	1.b-	2r
.	.	2dd
2r	.	[1ff
[2d	2f	.
=13	=13	=13
2d]	2f	2ff]
1f	1a	2cc
.	.	2cc
2c	4g	[2ee
.	4f	.
=14	=14	=14
1c	2g	4ee]
.	.	4ff
.	2e	4gg
.	.	4ee
1A	2.a	2ff
.	.	2ee
.	4g	.
=15	=15	=15
1.B-	4f	[0dd
.	4e	.
.	2d	.
.	[1g	.
4A	.	.
4G	.	.
=16	=16	=16
4B-	2g]	1dd]
4c	.	.
2.d	2f	.
.	1e	1r
4c	.	.
[2c	.	.
=17	=17	=17
2c]	2.d	1r
2B	.	.
.	4d	.
1c	1e	1g
=18	=18	=18
1r	1g	2.b-
.	.	4cc
1G	[1b-	[1dd
=19	=19	=19
1.B-	2b-]	2dd]
.	2f	4cc
.	.	4b-
.	1f	2dd
2F	.	[2cc
=20	=20	=20
1G	1d	2cc]
.	.	2b-
[1c	[1e	2a
.	.	4g
.	.	4f
=21	=21	=21
2c]	2e]	2.g
4B-	4d	.
4A	4c	4f
1G	4e	4g
.	4f	4a
.	[2g	2b-
=22	=22	=22
2.d	4g]	2.a
.	4f	.
.	1f	.
4d	.	8g
.	.	8f
1c	.	2g
.	2e	2g
=23	=23	=23
2r	1f	0a
2d	.	.
2.f	1r	.
8e	.	.
8d	.	.
=24	=24	=24
2c	1a	1r
2d	.	.
1G	[1b-	1dd
=25	=25	=25
2r	2b-]	1.ff
1d	2f	.
.	2f	.
[2f	[2a	2cc
=26	=26	=26
2f]	2a]	1cc
2c	1g	.
1d	.	1a
.	2f#	.
=27	=27	=27
2.G	1g	1.b-
4A	.	.
2B-	2r	.
2c	[2g	4a
.	.	4g
=28	=28	=28
2.d	2g]	4b-
.	.	4cc
.	1f	1dd
4c	.	.
2B-	.	.
2c	2e	[2cc
=29	=29	=29
0G	2.d	2cc]
.	.	4b-
.	4c	4a
.	2d	2b-
.	2e	4a
.	.	4g
=30	=30	=30
2.F	1.f	1.a
4F	.	.
2A	.	.
2F	2f	2a
=31	=31	=31
0c	0e	0g
*-	*-	*-
!! Hosanna
**kern	**kern	**kern	**kern
*Ibass	*Itenor	*Icalto	*Icant
!Bassus	!Tenor	!Altus	!Cantus
*clefF4	*clefGv2	*clefG2	*clefG2
*k[]	*k[]	*k[]	*k[]
*?:X	*?:X	*?:X	*?:X
*M3/2	*M3/2	*M3/2	*M3/2
=32	=32	=32	=32
2C	1c	1r	1r
2E	.	.	.
2F	2A	2r	2r
=33	=33	=33	=33
4D	2B-	1r	1r
4E	.	.	.
4F	2A	.	.
4D	.	.	.
4E	4G	2r	2r
4F	4A	.	.
=34	=34	=34	=34
2.G	4B-	1r	1r
.	4c	.	.
.	2.d	.	.
4F	.	.	.
2F	.	2r	2r
.	4c	.	.
=35	=35	=35	=35
2E	1c	1r	1r
1D	.	.	.
.	2B	2r	2r
=36	=36	=36	=36
1C	1c	2c	1cc
.	.	2e	.
2F	2r	2f	2a
=37	=37	=37	=37
2G	1r	4d	2b-
.	.	4e	.
2F	.	4f	2a
.	.	4d	.
2c	2r	4e	4g
.	.	4f	4a
=38	=38	=38	=38
2G	1r	2.g	4b-
.	.	.	4cc
2.B-	.	.	2.dd
.	.	4f	.
.	2r	2f	.
4A	.	.	4cc
=39	=39	=39	=39
2c	1r	2e	1cc
1G	.	1d	.
.	2r	.	2b
=40	=40	=40	=40
2.A	2c	1r	[1.cc
.	2e	.	.
4G	.	.	.
2F	2f	2r	.
=41	=41	=41	=41
1E	1g	2c	1.cc]
.	.	2e	.
2D	2f	2f	.
=42	=42	=42	=42
1C	1e	1g	2cc
.	.	.	2ee
2r	2d	2f	2ff
=43	=43	=43	=43
1r	2c	2e	2gg
.	2d	2.a	1ff
2r	2f	.	.
.	.	4f	.
=44	=44	=44	=44
1r	2c	2g	1ee
.	2A	2a	.
2r	2B-	[2f	2dd
=45	=45	=45	=45
1r	2A	4f]	2.cc
.	.	4c	.
.	1G	2e	.
.	.	.	4b
2r	.	2d	2b
=46	=46	=46	=46
2F	2r	2c	1cc
2A	2c	2r	.
2B-	2d	2r	4b-
.	.	.	4a
=47	=47	=47	=47
2.c	2e	2c	1g
.	2g	2e	.
4B-	.	.	.
2A	2c	2f	2r
=48	=48	=48	=48
1G	1d	2.g	2g
.	.	.	2b-
.	.	4f	.
2A	2r	2e	2cc
=49	=49	=49	=49
2.B-	1r	1d	2.dd
4A	.	.	4cc
2G	2r	2e	2b-
=50	=50	=50	=50
2F	2c	2f	2a
2E	2e	2g	2cc
2D	2f	2a	2dd
=51	=51	=51	=51
1C	2.g	2.cc	2.ee
.	4f	4b-	4ff
2C	2e	2g	2gg
=52	=52	=52	=52
2.D	2.d	2b-	2.ff
.	.	1a	.
4E	4c	.	4ee
2F	2A	.	2cc
=53	=53	=53	=53
2G	2B-	1g	2ee-
1D	1A	.	1dd
.	.	2f#	.
=54	=54	=54	=54
1G	2G	1g	1b-
.	2d	.	.
2A	2c	2r	2r
=55	=55	=55	=55
2B-	2d	1g	1dd
1c	1e-	.	.
.	.	2a	2cc
=56	=56	=56	=56
2G	2d	2b-	2dd
2C	1c	4cc	1ee-
.	.	4b-	.
2c	.	4a	.
.	.	4g	.
=57	=57	=57	=57
2G	2B-	1g	2dd
1A	1c	.	2.cc
.	.	2f#	.
.	.	.	4a
=58	=58	=58	=58
[1.G	1d	[1.g	4b-
.	.	.	4cc
.	.	.	1dd
.	[2e-	.	.
=59	=59	=59	=59
1.G]	2e-]	1.g]	1cc
.	1d	.	.
.	.	.	2b
=60	=60	=60	=60
1.C	1.c	1.g	1.cc
==	==	==	==
*-	*-	*-	*-
!!!CDT: 1525/^1526/-1594/2/2
!!!OCY: Italia
!!!AGN: Mass (Paraphrase)
!!!AST: renaissance, vocal
!!!ASW: Gregorian Mass
!!!PWK: Masses, Book 7
!!!RNB: Cadence finals: C,G,A,D
!!!YOR: Le Opere Complete, v. 23, p. 182
!!!YOO: Rome, Italy: Fratelli Scalera
!!!END: 1992//
!!!EED: John Miller
!!!YEC: Copyright 2000, John Miller
!!!YEN: United States of America
!!!YEM: Rights to all derivative electronic formats reserved.
!!!YEM: Refer to licensing agreement for further details.
!!!YEM: This file must be accompanied by the licensing agreement.
!!!YEM: A copy of the licensing agreement may be found at http://www.music-cog.ohio-state.edu/HumdrumDatabases/Palestrina/license.txt
!!!EMD: converted to Humdrum by Bret Aarden
